X:1
T:Do Something for Jesus
T:R. Paul Arnold, 1922
T:Do Something for Jesus
T:Public Domain
T:Public Domain
C:R. Paul Arnold, 1922
Z:Public Domain
%%score ( 1 2 ) ( 3 4 )
L:1/8
M:6/8
K:G
V:1 treble 
V:2 treble 
V:3 bass 
V:4 bass 
V:1
 D | [GB]>[GB][GB] [FB][Fd][Fc] | [GB]3 [DG]2 [DB] | [Gd]>[Ge][Gd] [GB][GA]G | [FA]3- [FA]2 D | %5
w: 1.~O|ther, do some- thing for Je-|sus, Do some-|thing, my bro- ther, to- day;|tell * how|
w: 2.~My|ther, do some- thing for Je-|sus, O while|not the mo- ments a- way,|Sav- * ior|
w: 3.~O|ther, it pays to serve Je-|sus, It pays|to serve Him ev- ery day,|Him * there|
 [DB]>[GB][GB] [=FB][Fc][Fd] | [Ed]3 [Ec]2 [Ec] | [DB]>[Dc][DB] [GB][FB][FA] | [DG]3- [DG]2 || %9
w: died for the sin- ner, And|save them from|sin’s rug- ged way. * *||
w: ten- der- ly call- ing, En-|list in His|ser- vice to- day. O bro-|ther, *|
w: strength for the wea- ry, And|mer- cy suf-|fi- cient al- way. * *||
"^Refrain" [Gd] | [Gd]>[Ge][Gd] [GB][GA]G | [GB]3 [FA]2 [FA] | [GA]>[GA][GA] [GA][GA][GB] | %13
w: ||||
w: do|some- thing for Je- sus, Do|thing for Je-|sus to- day, Be faith- ful|
w: ||||
 [FA]3- [FA]2 D | [GB]>[GB][GB] [Gd]2 [GB] | [EA]>[EG][CE] [EG]2 [Ge] | %16
w: |||
w: to * Him,|bat- tles to win, Do|some- thing for Je- sus|
w: |||
 [Gd]>[GB][DG] [FA][FB][FA] | G3- G2 |] %18
w: ||
w: to- day. * * * *||
w: ||
V:2
 D | x6 | x6 | x5 G | x5 D | x6 | x6 | x6 | x5 || x | x5 G | x6 | x6 | x5 D | x6 | x6 | x6 | %17
w: bro-|||Go|He|||||||||||||
w: bro-|||The|is||||||some-|||life’s||||
w: bro-|||In|is|||||||||||||
 G3- G2 |] %18
w: |
w: |
w: |
V:3
 [G,B,] | [G,D]>[G,D][G,D] [D,D][D,D][D,E] | [G,D]3 [G,B,]2 [G,B,] | %3
 [G,B,]>[G,C][G,B,] [A,^C][E,C][A,,C] | [D,-D]3 [D,C]2 [F,A,] | [G,D]>[G,D][G,D] G,G,G, | %6
 [C,G,]3 [C,G,]2 [C,G,] | [D,G,]>[D,A,][D,B,] [D,D][D,C][D,C] | [G,,B,]3- [G,,B,]2 || [G,B,] | %10
 [G,B,]>[G,C][G,B,] [G,D][G,C][G,B,] | [D,D]3 [D,D]2 [D,D] | [A,^C]>[A,C][A,C] [E,C][^C,C][A,,C] | %13
 [D,-D]3 [D,C]2 [F,A,] | [G,D]>[G,D][G,D] [G,B,]2 [G,D] | [C,C]>[C,C][C,G,] [C,C]2 [C,C] | %16
 [D,B,]>[D,D][D,B,] [D,C][D,D][D,C] | [G,,B,]3- [G,,B,]2 |] %18
V:4
 x | x6 | x6 | x6 | x6 | x3 G,G,G, | x6 | x6 | x5 || x | x6 | x6 | x6 | x6 | x6 | x6 | x6 | x5 |] %18

